img/icons/svg/icon__telegram.svg

<svg width="15" height="15" viewBox="0 0 15 15" fill="none" xmlns="http://www.w3.org/2000/svg">
<g clip-path="url(#clip0)">
<path d="M0.264944 7.23219L3.72124 8.52219L5.05904 12.8245C5.14464 13.1001 5.48159 13.2019 5.70524 13.0191L7.63184 11.4485C7.83379 11.2839 8.12144 11.2757 8.33249 11.4289L11.8074 13.9518C12.0466 14.1257 12.3856 13.9946 12.4456 13.7055L14.9911 1.46094C15.0566 1.14514 14.7463 0.881694 14.4456 0.997994L0.260894 6.47004C-0.0891557 6.60504 -0.0861057 7.10064 0.264944 7.23219ZM4.84344 7.83549L11.5983 3.67514C11.7197 3.60059 11.8446 3.76474 11.7404 3.86144L6.16564 9.04344C5.96969 9.22584 5.84329 9.46994 5.80749 9.73489L5.61759 11.1422C5.59244 11.3301 5.32849 11.3487 5.27664 11.1669L4.54629 8.60064C4.46264 8.30794 4.58454 7.99529 4.84344 7.83549Z" fill="white"/>
</g>
<defs>
<clipPath id="clip0">
<rect width="15" height="15" fill="white"/>
</clipPath>
</defs>
</svg>

<svg width="15" height="15" viewBox="0 0 15 15" fill="none" xmlns="http://www.w3.org/2000/svg"><g clip-path="url(#clip0)"><path d="M.265 7.232l3.456 1.29 1.338 4.303a.407.407 0 00.646.194l1.927-1.57a.575.575 0 01.7-.02l3.475 2.523c.24.174.579.043.639-.246L14.99 1.46a.407.407 0 00-.545-.463L.26 6.47a.408.408 0 00.004.762zm4.578.603l6.755-4.16c.122-.074.247.09.142.186L6.166 9.043a1.156 1.156 0 00-.359.692l-.19 1.407c-.025.188-.289.207-.34.025L4.547 8.6a.68.68 0 01.296-.766z" fill="#fff"/></g><defs><clipPath id="clip0"><path fill="#fff" d="M0 0h15v15H0z"/></clipPath></defs></svg>
